X: 84
T: THE BRINK OF THE WHITE ROCKS
B: O'Neill's 84
M: 6/8
L: 1/8
Z: Transcribed by John Chambers <jc@trillian.mit.edu>
N: "Gaily"
N: 2nd Setting.
N: Missing dot in bars 8, 16.
K:Em
  B2^d e2f | g2f e2=d | (Bd).B (AFA) | d3 B2A \
| B2^d e2f | {a}g2f e2=d | (Bd).B (AF)({A}G/F/) | E3 E2 ||
|| (Bd).B (AFD) | d2e f2z | e2d (BA)(B/^c/) | d3 B2A \
| B2^d e2f | {a}g2f e2=d | (Bd).B (AF)({A}G/F/) | E3 E2 ||


